common/src/main/resources/icons/expui/profiler/recInactive.svg

<svg xmlns="http://www.w3.org/2000/svg" width="12" height="12" viewBox="0 0 24 24"><path fill="#EF5350" d="M12.5 5A7.5 7.5 0 0 0 5 12.5a7.5 7.5 0 0 0 7.5 7.5 7.5 7.5 0 0 0 7.5-7.5A7.5 7.5 0 0 0 12.5 5M7 10h2a1 1 0 0 1 1 1v1c0 .5-.38.9-.86.97L10.31 15H9.15L8 13v2H7m5-5h2v1h-2v1h2v1h-2v1h2v1h-2a1 1 0 0 1-1-1v-3a1 1 0 0 1 1-1m4 0h2v1h-2v3h2v1h-2a1 1 0 0 1-1-1v-3a1 1 0 0 1 1-1m-8 1v1h1v-1" data-themed="true"/></svg>

<!--
  - The MIT License (MIT)
  -
  -  Copyright (c) 2015-2022 Elior "Mallowigi" Boukhobza
  -
  -  Permission is hereby granted, free of charge, to any person obtaining a copy
  -  of this software and associated documentation files (the "Software"), to deal
  -  in the Software without restriction, including without limitation the rights
  -  to use, copy, modify, merge, publish, distribute, sublicense, and/or sell
  -  copies of the Software, and to permit persons to whom the Software is
  -  furnished to do so, subject to the following conditions:
  -
  -  The above copyright notice and this permission notice shall be included in all
  -  copies or substantial portions of the Software.
  -
  -  THE SOFTWARE IS PROVIDED "AS IS", WITHOUT WARRANTY OF ANY KIND, EXPRESS OR
  -  IMPLIED, INCLUDING BUT NOT LIMITED TO THE WARRANTIES OF MERCHANTABILITY,
  -  FITNESS FOR A PARTICULAR PURPOSE AND NONINFRINGEMENT. IN NO EVENT SHALL THE
  -  AUTHORS OR COPYRIGHT HOLDERS BE LIABLE FOR ANY CLAIM, DAMAGES OR OTHER
  -  LIABILITY, WHETHER IN AN ACTION OF CONTRACT, TORT OR OTHERWISE, ARISING FROM,
  -  OUT OF OR IN CONNECTION WITH THE SOFTWARE OR THE USE OR OTHER DEALINGS IN THE
  -  SOFTWARE.
  -->

<svg xmlns="http://www.w3.org/2000/svg" viewBox="0 0 24 24" width="12px" height="12px">
  <path fill="#EF5350" data-themed="true"
        d="M12.5,5A7.5,7.5 0 0,0 5,12.5A7.5,7.5 0 0,0 12.5,20A7.5,7.5 0 0,0 20,12.5A7.5,7.5 0 0,0 12.5,5M7,10H9A1,1 0 0,1 10,11V12C10,12.5 9.62,12.9 9.14,12.97L10.31,15H9.15L8,13V15H7M12,10H14V11H12V12H14V13H12V14H14V15H12A1,1 0 0,1 11,14V11A1,1 0 0,1 12,10M16,10H18V11H16V14H18V15H16A1,1 0 0,1 15,14V11A1,1 0 0,1 16,10M8,11V12H9V11"/>
</svg>
